X: 1101
T:Ewe Reel (A47)
N: page A47
N: heptatonic
S:Trad, arr. Paddy O'Brien
R:reel
E:9
I:speed 350
M:C|
K:G
F|"G"DG~G2 DGGE|"D"~=F2 AF "Am"cFAF|"D"DGGF "G"~G2 eg|"Am"fdcA "G"BGAF|
"G"DG~G2 DGGE|"D"~=F2 AF "Am"cFAF|"D"DGGF "G"~G2eg|"Am"fdcA "G"BGG:|
f|:~g2 bg dgbg|"D"~f2 af dfaf|"G"~g2bg dgbg|"D"agfa "G"~g2 ga|
bgaf gfde|"D"fdcA "G"BGAF|Gggf gbag|"D"fdcA "G"BGG2:|
